X: 572
U:~=!turn!
M:C
L:1/8
K:F
!p!c/B/ | AF~F>A Bdd>B | Ac~c>A BGGc/B/ | !f!A~FF>A BddB | c>f e/f/g/e/ fFF !p!c/B/ | AF~F>A Bdd>B |
f<ag<a f<ac>A | BG Tc>B AFFc | f<ag<a Tf2 cB | AF (d/c/).B/.A/ BGGc | f<ag<a f<ac>A | B<G Tc>B AFF |]


